packages/core/src/svgs/tokens/branded/TIME.svg

<svg width="24" height="24" viewBox="0 0 24 24" fill="none" xmlns="http://www.w3.org/2000/svg">
<path d="M2 7.01882C2 5.6282 3.16124 4.50006 4.59249 4.50006H19.4075C20.8387 4.50006 22 5.6282 22 7.01882V16.9813C22 18.3719 20.8387 19.5 19.4075 19.5H4.59249C3.16124 19.5 2 18.3719 2 16.9813V7.01882ZM4.59249 5.10881C3.50749 5.10881 2.62688 5.96506 2.62688 7.01819V16.9819C2.62688 18.0357 3.50812 18.8913 4.59249 18.8913H19.4075C20.4925 18.8913 21.3731 18.0351 21.3731 16.9813V7.01882C21.3731 5.96444 20.4918 5.10881 19.4075 5.10881H4.59249Z" fill="#6784FF"/>
<path d="M12.0002 8.2628C11.009 8.2628 10.0583 8.65658 9.35745 9.35751C8.65652 10.0584 8.26274 11.0091 8.26274 12.0003C8.26274 12.9915 8.65652 13.9422 9.35745 14.6431C10.0583 15.344 11.009 15.7378 12.0002 15.7378C12.9915 15.7378 13.9421 15.344 14.643 14.6431C15.3439 13.9422 15.7378 12.9915 15.7378 12.0003C15.7378 11.0091 15.3439 10.0584 14.643 9.35751C13.9421 8.65658 12.9915 8.2628 12.0002 8.2628ZM7.62524 12.0003C7.62524 10.84 8.08618 9.7272 8.90665 8.90671C9.72714 8.08624 10.84 7.62531 12.0002 7.62531C13.1605 7.62531 14.2733 8.08624 15.0938 8.90671C15.9142 9.7272 16.3752 10.84 16.3752 12.0003C16.3752 13.1605 15.9142 14.2734 15.0938 15.0938C14.2733 15.9143 13.1605 16.3753 12.0002 16.3753C10.84 16.3753 9.72714 15.9143 8.90665 15.0938C8.08618 14.2734 7.62524 13.1605 7.62524 12.0003Z" fill="#6784FF"/>
<path d="M11.6873 10.7505C11.8722 10.7505 11.9998 10.9005 11.9998 11.0861V12.6255H13.5391C13.7247 12.6255 13.8748 12.753 13.8748 12.938C13.8748 13.123 13.7247 13.2506 13.5391 13.2506H11.3748V11.0861C11.3748 10.9005 11.5022 10.7505 11.6873 10.7505Z" fill="#6784FF"/>
</svg>

<svg xmlns="http://www.w3.org/2000/svg" width="24" height="24" fill="none" viewBox="0 0 24 24">
    <path fill="#6784FF" d="M2 7.019C2 5.629 3.161 4.5 4.592 4.5h14.816C20.838 4.5 22 5.628 22 7.02v9.962c0 1.39-1.161 2.519-2.593 2.519H4.592C3.162 19.5 2 18.372 2 16.981zm2.592-1.91c-1.085 0-1.965.856-1.965 1.91v9.963c0 1.054.881 1.91 1.965 1.91h14.816c1.084 0 1.965-.857 1.965-1.91V7.018c0-1.055-.881-1.91-1.966-1.91z"/>
    <path fill="#6784FF" d="M12 8.263a3.737 3.737 0 1 0 0 7.474 3.737 3.737 0 0 0 0-7.474M7.625 12a4.375 4.375 0 1 1 8.75 0 4.375 4.375 0 0 1-8.75 0"/>
    <path fill="#6784FF" d="M11.687 10.75c.185 0 .313.15.313.336v1.54h1.54c.185 0 .335.127.335.312s-.15.313-.336.313h-2.164v-2.165c0-.186.127-.335.312-.335"/>
</svg>
